X: 8
T: Jimmy Batty's - The Bloom Of Youth
C:
M: 4/4
L: 1/8
R: reel
K: Dmaj
P:A
|: dFFB AFEF | ~D2DF ADFA | BEEE Bdef | gefd edBc |
dFFB AFEF | ~D3F ADFA | BEEE (3Bcd ef |1 gdec d2fe :|2 gdec ~d4 ||
|: ~A3B AF F2 | ABde ~f2ed | Beed ~e3f | ~g2fd ed (3Bcd |
~A2 AB AF ~F2 | ABdB ~f2ed | Beed BcdB |1 AFEF D2BD :|2 AFEF DFAB ||
P:B
K: Gmaj
G2DG EGDE|G2BG AE~E2|G2DG EGAB|1 cedc BGAF:|2 cedc BG~G2||
gd~d2 eB~B2|cBAc BE~E2|g2gd edBA|Bdgd BG~G2|
g2bg eB~B2|cBAc BG~G2|c2cB cdef|gedc BGAF||

